X:36
T:The Gallant Tipperary Boys
B:Terry "Cuz" Teahan "Sliabh Luachra on Parade" 1980
Z:Patrick Cavanagh
M:12/8
L:1/8
R:Slide
K:D
A | d2A DFA B2A A2B | d2d ede f2e def | 
g2g f2f efe d2A | BAF EFA B2A A2 :| 
e | faa aff e2d d2e | faa afa b2e e2f | 
g2g f2f efe d2A | BAF EFA B2A A2 :|| 

